X:902
T:Merrily Kiss the Quaker
S:Luisa
M:12/8
R:SingleJig
K:G
D|GAB D2B c2A BGE|GAB DEG A3 AGE|GAB D2B c2A BGE|GAB D2E G3 G2::\
A|BGG AGG BGG AGE|GAB DEG A3 AGA|BGG AGG BGG AGE|GAB D2E G3 G2::\
d|g3 aga bge dBd|g3 gab a3 a2a|g3 fgf efe dBA|GAB D2E G3 G2:|
